svgs/chikis_chase.svg

<svg width="192" height="192" viewBox="0 0 192 192" fill="none" xmlns="http://www.w3.org/2000/svg">
<path d="M75.5 78L74 86" stroke="black" stroke-width="12" stroke-linecap="round" stroke-linejoin="round"/>
<path d="M111.5 84L110 92" stroke="black" stroke-width="12" stroke-linecap="round" stroke-linejoin="round"/>
<path d="M44.5943 87.1295C49.0651 62.0475 71.0825 43 97.5703 43C139.476 43 136.889 76.4653 170 76.4653L146.719 90.8812C146.719 90.8812 143.098 111.475 146.719 128.465C148.365 136.188 150.858 139.277 150.858 139.277C150.858 139.277 116.5 149 95.5009 149C76.5002 149 59.4164 138.251 50.9113 124.06M44.5943 87.1295C32.027 89.9226 22.1894 99.1527 22.0016 111.99C21.8852 119.943 28.2446 131.04 28.2446 131.04C28.2446 131.04 37.064 123.832 45.318 123.832C47.2498 123.832 49.1064 123.919 50.9113 124.06M44.5943 87.1295C47.202 86.5499 49.8841 86.2475 52.561 86.2475C75.3253 86.2475 91.8801 119.198 91.8801 119.198C91.8801 119.198 85.8342 125.098 79.4628 125.891C68.9786 127.195 60.7073 124.829 50.9113 124.06" stroke="black" stroke-width="12" stroke-linejoin="round"/>
</svg>

<svg xmlns="http://www.w3.org/2000/svg" width="192" height="192" fill="none" viewBox="0 0 192 192"><path stroke="#000" stroke-linecap="round" stroke-linejoin="round" stroke-width="12" d="M75.5 78 74 86m37.5-2-1.5 8"/><path stroke="#000" stroke-linejoin="round" stroke-width="12" d="M44.594 87.13C49.065 62.047 71.082 43 97.57 43c41.906 0 39.319 33.465 72.43 33.465l-23.281 14.416s-3.621 20.594 0 37.584c1.646 7.723 4.139 10.812 4.139 10.812S116.5 149 95.501 149c-19 0-36.085-10.749-44.59-24.94m-6.317-36.93c-12.567 2.793-22.405 12.023-22.592 24.86-.117 7.953 6.243 19.05 6.243 19.05s8.819-7.208 17.073-7.208c1.932 0 3.788.087 5.593.228m-6.317-36.93c2.608-.58 5.29-.882 7.967-.882 22.764 0 39.32 32.95 39.32 32.95s-6.047 5.9-12.418 6.693c-10.484 1.304-18.756-1.062-28.552-1.831"/></svg>
